Papirus/22x22/apps/vroid-studio.svg

<svg width="22" height="22" version="1.1" xmlns="http://www.w3.org/2000/svg">
 <path d="m0.08306718 12.21684c0.8927181-1.505667 4.3782893-7.3780576 5.2704649-8.8840685 0.1090703-0.1841136 0.3728261-0.3332292 0.5893798-0.3327704 1.7482421 0.00371 8.4932941 0.020499 10.241407 0.023743 0.216553 4.047e-4 0.479523 0.1503656 0.586669 0.3355756 0.875055 1.5125915 4.27435 7.4183583 5.149145 8.9308563 0.107121 0.185208 0.106583 0.484595-0.0022 0.668883-0.875094 1.482621-4.243606 7.176131-5.119218 8.658376-0.108839 0.184242-0.37245 0.334152-0.589002 0.335017-1.778386 7e-3 -8.7423737 0.04087-10.520862 0.04755-0.2165519 7.8e-4 -0.4787596-0.149121-0.5852129-0.334717-0.8591055-1.497763-4.1656285-7.281472-5.024931-8.779268-0.1064693-0.185581-0.1048162-0.485102 0.00432-0.669181z" style="opacity:.2"/>
 <path d="m0.08306718 11.216839c0.8927181-1.505668 4.3782893-7.3780576 5.2704649-8.8840674 0.1090703-0.1841137 0.3728261-0.3332295 0.5893798-0.3327705 1.7482421 0.00371 8.4932941 0.020499 10.241407 0.023744 0.216553 4.046e-4 0.479523 0.1503655 0.586669 0.3355754 0.875055 1.5125905 4.27435 7.4183595 5.149145 8.9308545 0.107121 0.185208 0.106583 0.484595-0.0022 0.668884-0.875094 1.482618-4.243606 7.176129-5.119218 8.658375-0.108839 0.184242-0.37245 0.334153-0.589002 0.335019-1.778393 7e-3 -8.7423811 0.04087-10.520868 0.04754-0.2165455 7.88e-4 -0.4787532-0.149113-0.5852065-0.334709-0.8591055-1.497762-4.1656285-7.281471-5.024931-8.779268-0.1064693-0.185581-0.1048162-0.485102 0.00432-0.669182z" style="fill:#fecd38"/>
 <path d="m9.0070835 17.929607 5.5659785-8.678783a0.55519942 0.507379 0 0 1 0.554624-0.246094l2.822482 0.354664a0.05774151 0.05276814 0 0 1 0.04169 0.07935l-5.398087 8.254568a0.65728976 0.60067612 0 0 1-0.560795 0.292523l-2.9815015 0.01416a0.05115285 0.04674695 0 0 1-0.04441-0.07039z" style="fill:#feb924"/>
 <path d="m4.0156428 9.441858 1.3791198-2.0529695c0.2057862-0.3063351 0.255246-0.3888916 0.3503299-0.3888885l2.3300644 7.86e-5c0.209068-0.00354 0.3492421 0.1898625 0.4725716 0.3888099l2.4523095 3.9559055-1.5982045 2.547041c-0.0951 0.151568-0.290249 0.142243-0.37459-0.0179l-2.0591752-3.90985c-0.00671-0.01265-0.018313-0.02044-0.03097-0.0207l-2.879881-0.332052c-0.051323-1e-3 -0.065424-0.06232-0.052879-0.118687z" style="fill:#feb924"/>
 <path d="m5.7441783 6.9999999c-0.095084-3.1e-6 -0.1438234 0.082211-0.3496094 0.3880752l-1.3789062 2.0495829-0.011719 0.050702c-0.012545 0.05628 0.00141 0.117959 0.052734 0.118957l0.4785162-0.491429 0.859375-1.2753835c0.205786-0.3058645 0.2545256-0.3880783 0.3496094-0.3880752h2.3300782c0.2090677-0.00353 0.3493266 0.1894334 0.472656 0.3880752l2.1406245 3.4478235 0.102522 0.711624 0.209978-0.660921-2.4531245-3.9509559c-0.1233294-0.1986417-0.2635883-0.3916097-0.472656-0.3880752z" style="opacity:.2"/>
 <path d="m15.120838 9.004753c-0.222132-0.027958-0.440823 0.06914-0.554199 0.24607l-5.5595505 8.678873c-0.01963 0.03074 4e-3 0.06947 0.04293 0.0703l0.89019 0.0021 0.2787005-0.317355 4.665808-7.34306c0.115575-0.182616 0.319677-0.542889 0.538588-0.540989l2.356745-0.02699 0.207296-0.363232 0.01269-0.165902-0.568739 0.05114z" style="opacity:.2"/>
 <path d="m4.1958543 9.329912 2.7065127-0.01954a0.61335511 0.60196405 0 0 1 0.5316696 0.294231l1.9220919 3.171631a0.21567952 0.21167398 0 0 0 0.367727 0.0048l3.5358955-5.4944686a0.62651909 0.61488356 0 0 1 0.539659-0.2864619l2.455838 0.038255a0.66223873 0.64993982 0 0 1 0.544071 0.2946424l1.170053 1.7595361a0.18866652 0.18516267 0 0 1-0.15953 0.286321l-2.380546-0.01898a0.62819052 0.61652393 0 0 0-0.538061 0.290138l-5.2442335 8.24872a0.21922042 0.21514911 0 0 1-0.372116-2.28e-4l-5.2449788-8.272883a0.19715657 0.193495 0 0 1 0.1659476-0.295713z" style="fill:#feffff"/>
 <path d="m17.992246 9.424568-5.432308 8.324531c-0.117544 0.170723-0.31786 0.232804-0.547322 0.234001l-3.0032405 0.01498c-0.0046 0.270203-0.0079 0.846867-0.0093 1.00191v-0.59399l3.0243045-0.022c0.229462-0.0012 0.441497-0.0024 0.559041-0.17312l5.383932-7.965612c0.02213-0.0312 0.05427-1.241327 0.01224-1.245281z" style="fill:#fefefe;opacity:.2"/>
</svg>

<svg xmlns="http://www.w3.org/2000/svg" width="22" height="22" version="1.1">
 <path style="opacity:0.2" d="M 0.08307,11.717 C 0.97579,10.211 4.4614,4.3388 5.3535,2.8328 5.4626,2.6487 5.7264,2.4995 5.9429,2.5 7.6912,2.5037 14.436,2.5205 16.184,2.5237 16.401,2.5241 16.664,2.6741 16.771,2.8593 17.646,4.3719 21.045,10.278 21.92,11.79 22.027,11.975 22.027,12.275 21.918,12.459 21.043,13.942 17.674,19.635 16.799,21.117 16.69,21.302 16.426,21.452 16.21,21.452 14.431,21.459 7.4673,21.493 5.6889,21.5 5.4723,21.501 5.2101,21.351 5.1036,21.165 4.2445,19.668 0.93801,13.884 0.07871,12.386 -0.02776,12.2 -0.02611,11.901 0.08303,11.717 Z"/>
 <path style="fill:#fecd38" d="M 0.08307,11.217 C 0.97579,9.7112 4.4614,3.8388 5.3535,2.3328 5.4626,2.1487 5.7264,1.9995 5.9429,2 7.6912,2.0037 14.436,2.0205 16.184,2.0237 16.401,2.0241 16.664,2.1741 16.771,2.3593 17.646,3.8719 21.045,9.7777 21.92,11.29 22.027,11.475 22.027,11.775 21.918,11.959 21.043,13.442 17.674,19.135 16.799,20.617 16.69,20.802 16.426,20.952 16.21,20.952 14.431,20.959 7.4673,20.993 5.6888,21 5.4723,21.001 5.2101,20.851 5.1036,20.665 4.2445,19.168 0.93801,13.384 0.07871,11.886 -0.02776,11.7 -0.02611,11.401 0.08303,11.217 Z"/>
 <path style="fill:#feb924" d="M 9.0071,17.93 14.573,9.2508 A 0.5552,0.50738 0 0 1 15.128,9.0047 L 17.95,9.3594 A 0.05774,0.05277 0 0 1 17.992,9.4387 L 12.594,17.693 A 0.65729,0.60068 0 0 1 12.033,17.986 L 9.0515,18 A 0.05115,0.04675 0 0 1 9.0071,17.93 Z"/>
 <path style="fill:#feb924" d="M 4.0156,9.4419 5.3948,7.3889 C 5.6005,7.0826 5.65,7 5.7451,7 L 8.0752,7.0001 C 8.2842,6.9965 8.4244,7.1899 8.5477,7.3889 L 11,11.345 9.4018,13.892 C 9.3067,14.043 9.1116,14.034 9.0272,13.874 L 6.9681,9.9641 C 6.9614,9.9514 6.9498,9.9436 6.9371,9.9434 L 4.0572,9.6113 C 4.0059,9.6103 3.9918,9.549 4.0043,9.4926 Z"/>
 <path style="opacity:0.2" d="M 5.7442,7 C 5.6491,7 5.6004,7.0822 5.3946,7.3881 L 4.0157,9.4377 4.0039,9.4884 C 3.9914,9.5446 4.0054,9.6063 4.0567,9.6073 L 4.5352,9.1159 5.3946,7.8405 C 5.6004,7.5346 5.6491,7.4524 5.7442,7.4524 H 8.0743 C 8.2833,7.4489 8.4236,7.6419 8.5469,7.8405 L 10.688,11.288 10.79,12 11,11.339 8.5469,7.3881 C 8.4236,7.1894 8.2833,6.9965 8.0743,7 Z"/>
 <path style="opacity:0.2" d="M 15.121,9.0048 C 14.899,8.9768 14.68,9.0739 14.567,9.2508 L 9.0071,17.93 C 8.9875,17.96 9.0111,17.999 9.05,18 L 9.9402,18.002 10.219,17.685 14.885,10.342 C 15,10.159 15.204,9.7988 15.423,9.8007 L 17.78,9.7737 17.987,9.4105 18,9.2446 17.431,9.2957 Z"/>
 <path style="fill:#feffff" d="M 4.1959,9.3299 6.9024,9.3104 A 0.61336,0.60196 0 0 1 7.434,9.6046 L 9.3561,12.776 A 0.21568,0.21167 0 0 0 9.7239,12.781 L 13.26,7.2866 A 0.62652,0.61488 0 0 1 13.799,7.0001 L 16.255,7.0384 A 0.66224,0.64994 0 0 1 16.799,7.333 L 17.969,9.0925 A 0.18867,0.18516 0 0 1 17.81,9.3789 L 15.429,9.3599 A 0.62819,0.61652 0 0 0 14.891,9.65 L 9.647,17.899 A 0.21922,0.21515 0 0 1 9.2749,17.899 L 4.0299,9.6256 A 0.19716,0.1935 0 0 1 4.1959,9.3299 Z"/>
 <path style="opacity:0.2;fill:#fefefe" d="M 17.992,9.4246 12.56,17.749 C 12.442,17.92 12.242,17.982 12.013,17.983 L 9.0094,17.998 C 9.0048,18.268 9.0015,18.845 9.0001,19 V 18.406 L 12.024,18.384 C 12.254,18.383 12.466,18.382 12.583,18.211 L 17.967,10.245 C 17.989,10.214 18.022,9.0039 17.98,9 Z"/>
 <path style="opacity:0.2;fill:#ffffff" d="M 5.9434,2 C 5.7268,1.9995 5.4626,2.1479 5.3535,2.332 4.4613,3.838 0.9767,9.7111 0.08398,11.217 -0.01136,11.378 -0.02032,11.623 0.04883,11.807 0.06005,11.776 0.06834,11.743 0.08398,11.717 0.9767,10.211 4.4614,4.338 5.3535,2.832 5.4626,2.6479 5.7269,2.4995 5.9434,2.5 7.6917,2.5037 14.436,2.5202 16.184,2.5234 16.401,2.5238 16.664,2.6742 16.771,2.8594 17.646,4.372 21.045,10.277 21.92,11.789 21.934,11.813 21.941,11.844 21.951,11.871 22.019,11.689 22.012,11.45 21.92,11.291 21.045,9.7785 17.647,3.872 16.771,2.3594 16.664,2.1742 16.4,2.0238 16.184,2.0234 14.435,2.0202 7.6916,2.0037 5.9434,2 Z"/>
</svg>
